tools/download-figma-icons/icons/outlined-large/efficiency.svg

<svg width="64" height="64" viewBox="0 0 64 64" fill="none" xmlns="http://www.w3.org/2000/svg">
<path fill-rule="evenodd" clip-rule="evenodd" d="M62.4999 25H54.9599C54.5089 23.52 53.9139 22.086 53.1839 20.717L58.5169 15.383C59.1029 14.797 59.1029 13.848 58.5169 13.262L50.7379 5.483C50.1519 4.897 49.2029 4.897 48.6169 5.483L43.2829 10.816C41.9139 10.086 40.4799 9.491 38.9999 9.04V1.5C38.9999 0.672 38.3279 0 37.4999 0H26.4999C25.6719 0 24.9999 0.672 24.9999 1.5V9.02C23.5879 9.435 22.1529 10.035 20.7139 10.814L15.3829 5.483C14.7969 4.897 13.8479 4.897 13.2619 5.483L5.4829 13.262C5.1979 13.547 5.0399 13.935 5.0439 14.338C5.0479 14.74 5.2139 15.125 5.5049 15.404L7.4609 17.282C8.0589 17.855 9.0079 17.838 9.5819 17.239C10.1559 16.642 10.1369 15.691 9.5389 15.118L8.6869 14.301L14.3219 8.665L19.4009 13.744C19.8859 14.229 20.6409 14.325 21.2319 13.971C23.1399 12.829 25.0209 12.046 26.8259 11.644C27.5129 11.491 27.9999 10.883 27.9999 10.18V3H35.9999V10.18C35.9999 10.867 36.4679 11.467 37.1349 11.635C39.1129 12.132 41.0089 12.918 42.7679 13.971C43.3589 14.325 44.1139 14.229 44.5989 13.744L49.6779 8.665L55.3349 14.322L50.2559 19.401C49.7699 19.888 49.6759 20.643 50.0289 21.232C51.0819 22.991 51.8679 24.887 52.3649 26.865C52.5329 27.532 53.1329 28 53.8199 28H60.9999V36H53.8199C53.1329 36 52.5329 36.468 52.3649 37.135C51.8679 39.113 51.0819 41.009 50.0289 42.768C49.6759 43.357 49.7699 44.112 50.2559 44.599L55.3349 49.678L49.6779 55.335L44.5989 50.256C44.1139 49.771 43.3589 49.674 42.7679 50.029C41.0089 51.082 39.1129 51.868 37.1349 52.365C36.4679 52.533 35.9999 53.133 35.9999 53.82V61H27.9999V53.82C27.9999 53.116 27.5109 52.507 26.8229 52.355C25.1599 51.989 23.4009 51.299 21.7369 50.359C21.0159 49.956 20.1019 50.208 19.6929 50.929C19.2859 51.65 19.5409 52.565 20.2629 52.973C21.7999 53.84 23.4169 54.524 24.9999 54.984V62.5C24.9999 63.328 25.6719 64 26.4999 64H37.4999C38.3279 64 38.9999 63.328 38.9999 62.5V54.96C40.4799 54.509 41.9139 53.914 43.2829 53.184L48.6169 58.517C49.2029 59.103 50.1519 59.103 50.7379 58.517L58.5169 50.738C59.1029 50.152 59.1029 49.203 58.5169 48.617L53.1839 43.283C53.9139 41.914 54.5089 40.48 54.9599 39H62.4999C63.3279 39 63.9999 38.328 63.9999 37.5V26.5C63.9999 25.672 63.3279 25 62.4999 25ZM8.6659 55.4326L13.9099 41.0126C14.0769 40.5526 14.0099 40.0396 13.7279 39.6396C13.4479 39.2386 12.9889 38.9996 12.4999 38.9996H4.0189L13.7719 20.9996H23.6969L17.2519 30.6676C16.9449 31.1276 16.9159 31.7196 17.1779 32.2076C17.4379 32.6956 17.9469 32.9996 18.4999 32.9996H28.2039L8.6659 55.4326ZM32.8649 30.8786C32.6219 30.3436 32.0879 29.9996 31.4999 29.9996H21.3029L27.7479 20.3316C28.0549 19.8716 28.0839 19.2806 27.8219 18.7916C27.5619 18.3046 27.0529 17.9996 26.4999 17.9996H12.8789C12.3279 17.9996 11.8219 18.3016 11.5609 18.7856L0.181898 39.7856C-0.0701024 40.2496 -0.0601024 40.8136 0.210898 41.2676C0.480898 41.7216 0.971898 41.9996 1.4999 41.9996H10.3579L3.0899 61.9876C2.8439 62.6666 3.1159 63.4246 3.7379 63.7916C3.9759 63.9326 4.2379 63.9996 4.4989 63.9996C4.9219 63.9996 5.3379 63.8226 5.6309 63.4856L32.6309 32.4856C33.0179 32.0416 33.1079 31.4136 32.8649 30.8786ZM28.4789 42.43C29.6029 42.809 30.7869 43 31.9999 43C38.0649 43 42.9999 38.065 42.9999 32C42.9999 25.832 38.3879 21 32.4999 21C31.6719 21 30.9999 20.328 30.9999 19.5C30.9999 18.672 31.6719 18 32.4999 18C40.0699 18 45.9999 24.149 45.9999 32C45.9999 39.72 39.7199 46 31.9999 46C30.4619 46 28.9549 45.756 27.5209 45.273C26.7359 45.009 26.3139 44.158 26.5779 43.373C26.8429 42.59 27.6909 42.169 28.4789 42.43Z" fill="black"/>
</svg>

<svg xmlns="http://www.w3.org/2000/svg" width="64" height="64" fill="none" viewBox="0 0 64 64"><path fill="currentColor" fill-rule="evenodd" d="M62.5 25h-7.54a24 24 0 0 0-1.776-4.283l5.333-5.334a1.5 1.5 0 0 0 0-2.121l-7.78-7.779a1.5 1.5 0 0 0-2.12 0l-5.334 5.333A24 24 0 0 0 39 9.04V1.5A1.5 1.5 0 0 0 37.5 0h-11A1.5 1.5 0 0 0 25 1.5v7.52a22 22 0 0 0-4.286 1.794l-5.331-5.331a1.5 1.5 0 0 0-2.121 0l-7.78 7.779a1.5 1.5 0 0 0 .023 2.142l1.956 1.878a1.5 1.5 0 1 0 2.078-2.164l-.852-.817 5.635-5.636 5.079 5.079a1.5 1.5 0 0 0 1.83.227c1.909-1.142 3.79-1.925 5.595-2.327A1.5 1.5 0 0 0 28 10.18V3h8v7.18c0 .687.468 1.287 1.135 1.455a20.9 20.9 0 0 1 5.633 2.336 1.5 1.5 0 0 0 1.83-.227l5.08-5.079 5.657 5.657-5.08 5.079a1.5 1.5 0 0 0-.226 1.831 20.9 20.9 0 0 1 2.336 5.633A1.5 1.5 0 0 0 53.82 28H61v8h-7.18c-.687 0-1.287.468-1.455 1.135a20.9 20.9 0 0 1-2.336 5.633 1.5 1.5 0 0 0 .227 1.831l5.079 5.079-5.657 5.657-5.08-5.079a1.5 1.5 0 0 0-1.83-.227 20.9 20.9 0 0 1-5.633 2.336A1.5 1.5 0 0 0 36 53.82V61h-8v-7.18a1.5 1.5 0 0 0-1.177-1.465c-1.663-.366-3.422-1.056-5.086-1.996a1.5 1.5 0 0 0-1.474 2.614A22.6 22.6 0 0 0 25 54.984V62.5a1.5 1.5 0 0 0 1.5 1.5h11a1.5 1.5 0 0 0 1.5-1.5v-7.54a24 24 0 0 0 4.283-1.776l5.334 5.333a1.5 1.5 0 0 0 2.12 0l7.78-7.779a1.5 1.5 0 0 0 0-2.121l-5.333-5.334A24 24 0 0 0 54.96 39h7.54a1.5 1.5 0 0 0 1.5-1.5v-11a1.5 1.5 0 0 0-1.5-1.5M8.666 55.433l5.244-14.42c.167-.46.1-.973-.182-1.373A1.5 1.5 0 0 0 12.5 39H4.019l9.753-18h9.925l-6.445 9.668a1.5 1.5 0 0 0-.074 1.54c.26.488.769.792 1.322.792h9.704zm24.199-24.554a1.5 1.5 0 0 0-1.365-.88H21.303l6.445-9.667A1.5 1.5 0 0 0 26.5 18H12.879c-.551 0-1.057.302-1.318.786l-11.38 21A1.498 1.498 0 0 0 1.5 42h8.858L3.09 61.988a1.5 1.5 0 0 0 2.54 1.498l27-31a1.5 1.5 0 0 0 .235-1.607M28.479 42.43a11 11 0 0 0 3.52.57c6.066 0 11-4.935 11-11 0-6.168-4.611-11-10.5-11a1.5 1.5 0 0 1 0-3C40.07 18 46 24.149 46 32c0 7.72-6.28 14-14 14a14 14 0 0 1-4.478-.727 1.5 1.5 0 1 1 .958-2.843" clip-rule="evenodd"/></svg>
